rospo-newyear-light/symbolic/status/weather-snow-symbolic.svg

<svg height="16" width="16" xmlns="http://www.w3.org/2000/svg"><g fill="#5c616c"><path d="m8 0c-2.07 0-3.8298 1.2705-4.5898 3.0605-1.93.29-3.4102 1.9295-3.4102 3.9395 0 2.21 1.79 4 4 4h1.1758a3 3 0 0 1 2.8242-2 3 3 0 0 1 2.826 2h1.674c1.93 0 3.5-1.57 3.5-3.5 0-1.8-1.35-3.2707-3.09-3.4707-.46-2.29-2.48-4.0293-4.91-4.0293z"/><path d="m5 14a2 2 0 0 1 -2 2 2 2 0 0 1 -2-2 2 2 0 0 1 2-2 2 2 0 0 1 2 2z"/><path d="m10 12a2 2 0 0 1 -2 2 2 2 0 0 1 -2-2 2 2 0 0 1 2-2 2 2 0 0 1 2 2z"/><path d="m15 14a2 2 0 0 1 -2 2 2 2 0 0 1 -2-2 2 2 0 0 1 2-2 2 2 0 0 1 2 2z"/></g></svg>

<svg xmlns="http://www.w3.org/2000/svg" width="16" height="16" version="1.1">
 <path style="fill:#5c616c" d="M 8 0 C 5.93 0 4.1702 1.2705 3.4102 3.0605 C 1.4802 3.3505 0 4.99 0 7 C 0 9.21 1.79 11 4 11 L 5.1758 11 A 3 3 0 0 1 8 9 A 3 3 0 0 1 10.826 11 L 12.5 11 C 14.43 11 16 9.43 16 7.5 C 16 5.7 14.65 4.2293 12.91 4.0293 C 12.45 1.7393 10.43 -5.9212e-16 8 0 z"/>
 <path style="fill:#5c616c" d="M 5,14 A 2,2 0 0 1 3,16 2,2 0 0 1 1,14 2,2 0 0 1 3,12 2,2 0 0 1 5,14 Z"/>
 <path style="fill:#5c616c" d="M 10,12 A 2,2 0 0 1 8,14 2,2 0 0 1 6,12 2,2 0 0 1 8,10 2,2 0 0 1 10,12 Z"/>
 <path style="fill:#5c616c" d="M 15,14 A 2,2 0 0 1 13,16 2,2 0 0 1 11,14 2,2 0 0 1 13,12 2,2 0 0 1 15,14 Z"/>
</svg>
